X:1
T:My Home Town  "rpband"
M:3/4
L:1/8
Q:80
C:
S:Retreat March
K:HP
|: {Gdc}d3/2e/2{g}f2{e}fa | \
fe/2d/2{g}B2{g}Bc/2d/2 | \
{g}c3/2B/2{g}A2{Gdc}d2 |
{g}de/2f/2{gef}e2-ea | \
{g}a3/2g/2{g}f2{e}fa | \
fe/2d/2{g}B2{g}Bc/2d/2 |
{g}c3/2B/2{g}A2{g}de/2f/2 | \
{gef}e3/2d/2{gdc}d2-dA :: \
{g}de/2f/2{gf}g2{f}g2 |
{fg}fe{g}f2{Gdc}d2 | \
{ag}af{gef}e2-ed | \
{g}fA{g}B2-BA| |:
{g}A3/2B/2{Gdc}d2{g}da | \
fe/2d/2{g}B2{g}Bc/2d/2 | \
{g}c3/2B/2{g}A2{g}de/2f/2 |
{gef}e3/2d/2|1 {gdc}d2-dA|2 {gdc}d4 :|
